map_marker_monochrome/openmoji_windows.svg

<svg xmlns="http://www.w3.org/2000/svg" width="24" height="24" viewBox="0 0 24 24"> <g transform="translate(0.7514024847114804 0.0) scale(0.4786637240548306)">
  
  <g
     id="line"
     transform="translate(-14,-10.930208)">
    <path
       fill="#000"
       d="m 34,16.1628 h 1 c 0,-0.2933 -0.1287,-0.5718 -0.3522,-0.7618 -0.2234,-0.19 -0.519,-0.2723 -0.8085,-0.2252 z m -19,3.093 -0.1607,-0.987 C 14.3554,18.3476 14,18.7655 14,19.2558 Z M 15,34 h -1 c 0,0.5523 0.4477,1 1,1 z m 19,0 v 1 c 0.5523,0 1,-0.4477 1,-1 z m -19,4 v -1 c -0.5523,0 -1,0.4477 -1,1 z m 0,14.7442 h -1 c 0,0.4902 0.3554,0.9082 0.8393,0.987 z m 19,3.093 -0.1607,0.987 C 34.1288,56.8713 34.4244,56.789 34.6478,56.599 34.8713,56.409 35,56.1305 35,55.8372 Z M 34,38 h 1 c 0,-0.5523 -0.4477,-1 -1,-1 z m 4,18.4884 h -1 c 0,0.4902 0.3554,0.9082 0.8393,0.987 z m 22,3.5814 -0.1607,0.987 c 0.2895,0.0471 0.5851,-0.0352 0.8085,-0.2252 C 60.8712,60.6416 61,60.3631 61,60.0698 Z M 60,38 h 1 c 0,-0.5523 -0.4477,-1 -1,-1 z m -22,0 v -1 c -0.5523,0 -1,0.4477 -1,1 z m 22,-4 v 1 c 0.5523,0 1,-0.4477 1,-1 z m -22,0 h -1 c 0,0.5523 0.4477,1 1,1 z m 0,-18.4884 -0.1607,-0.987 C 37.3554,14.6034 37,15.0214 37,15.5116 Z m 22,-3.5814 h 1 c 0,-0.2933 -0.1288,-0.5718 -0.3522,-0.7618 -0.2234,-0.19 -0.519,-0.2723 -0.8085,-0.2252 z m -26.1607,3.2456 -19,3.093 0.3214,1.974 19,-3.093 z M 14,19.2558 V 34 h 2 V 19.2558 Z M 34,33 H 15 v 2 H 34 Z M 33,16.1628 V 34 h 2 V 16.1628 Z M 14,38 v 14.7442 h 2 V 38 Z m 0.8393,15.7312 19,3.093 0.3214,-1.974 -19,-3.093 z M 33,38 v 17.8372 h 2 V 38 Z M 15,39 H 34 V 37 H 15 Z m 22.8393,18.4754 22,3.5814 0.3214,-1.974 -22,-3.5814 z M 61,60.0698 V 38 H 59 V 60.0698 Z M 38,39 H 60 V 37 H 38 Z m 1,17.4884 V 38 H 37 V 56.4884 Z M 60,33 H 38 v 2 H 60 Z M 39,34 V 15.5116 H 37 V 34 Z m 20.8393,-23.0568 -22,3.5814 0.3214,1.974 22,-3.5814 z M 61,34 V 11.9302 H 59 V 34 Z"
       id="path2" />
  </g>
</g></svg>

<svg xmlns="http://www.w3.org/2000/svg" width="24" height="24" viewBox="0 0 24 24"> <g transform="scale(0.333333333)">  <g id="line">
    <path fill="#000" d="M34 16.1628H35C35 15.8695 34.8713 15.591 34.6478 15.401C34.4244 15.211 34.1288 15.1287 33.8393 15.1758L34 16.1628ZM15 19.2558L14.8393 18.2688C14.3554 18.3476 14 18.7655 14 19.2558H15ZM15 34H14C14 34.5523 14.4477 35 15 35V34ZM34 34V35C34.5523 35 35 34.5523 35 34H34ZM15 38V37C14.4477 37 14 37.4477 14 38H15ZM15 52.7442H14C14 53.2344 14.3554 53.6524 14.8393 53.7312L15 52.7442ZM34 55.8372L33.8393 56.8242C34.1288 56.8713 34.4244 56.789 34.6478 56.599C34.8713 56.409 35 56.1305 35 55.8372H34ZM34 38H35C35 37.4477 34.5523 37 34 37V38ZM38 56.4884H37C37 56.9786 37.3554 57.3966 37.8393 57.4754L38 56.4884ZM60 60.0698L59.8393 61.0568C60.1288 61.1039 60.4244 61.0216 60.6478 60.8316C60.8712 60.6416 61 60.3631 61 60.0698H60ZM60 38H61C61 37.4477 60.5523 37 60 37V38ZM38 38V37C37.4477 37 37 37.4477 37 38H38ZM60 34V35C60.5523 35 61 34.5523 61 34H60ZM38 34H37C37 34.5523 37.4477 35 38 35V34ZM38 15.5116L37.8393 14.5246C37.3554 14.6034 37 15.0214 37 15.5116H38ZM60 11.9302H61C61 11.6369 60.8712 11.3584 60.6478 11.1684C60.4244 10.9784 60.1288 10.8961 59.8393 10.9432L60 11.9302ZM33.8393 15.1758L14.8393 18.2688L15.1607 20.2428L34.1607 17.1498L33.8393 15.1758ZM14 19.2558V34H16V19.2558H14ZM34 33H15V35H34V33ZM33 16.1628V34H35V16.1628H33ZM14 38V52.7442H16V38H14ZM14.8393 53.7312L33.8393 56.8242L34.1607 54.8502L15.1607 51.7572L14.8393 53.7312ZM33 38V55.8372H35V38H33ZM15 39H34V37H15V39ZM37.8393 57.4754L59.8393 61.0568L60.1607 59.0828L38.1607 55.5014L37.8393 57.4754ZM61 60.0698V38H59V60.0698H61ZM38 39H60V37H38V39ZM39 56.4884V38H37V56.4884H39ZM60 33H38V35H60V33ZM39 34V15.5116H37V34H39ZM59.8393 10.9432L37.8393 14.5246L38.1607 16.4986L60.1607 12.9172L59.8393 10.9432ZM61 34V11.9302H59V34H61Z"/>
  </g></g></svg>
